tools/icongen/assets/ActivityBarCollectionsIcon.svg

<svg width="20" height="20" viewBox="0 0 20 20" fill="none" xmlns="http://www.w3.org/2000/svg">
<path d="M10.1613 5.47662L10.3549 5.665H10.625L16.75 5.665C17.4873 5.665 18.085 6.2627 18.085 7V15.1667C18.085 16.1291 17.3636 16.835 16.5625 16.835H3.4375C2.63642 16.835 1.915 16.1291 1.915 15.1667V4.83333C1.915 3.87086 2.63642 3.165 3.4375 3.165H7.64934C7.7366 3.165 7.82042 3.19905 7.88296 3.2599L10.1613 5.47662Z" stroke="#808080" strokeWidth="1.33"/>
</svg>

<svg width="20" height="20" fill="none" xmlns="http://www.w3.org/2000/svg"><path d="m10.161 5.477.194.188h6.395c.737 0 1.335.598 1.335 1.335v8.167c0 .962-.721 1.668-1.523 1.668H3.438c-.8 0-1.522-.706-1.522-1.668V4.833c0-.962.721-1.668 1.522-1.668H7.65c.088 0 .171.034.234.095l2.278 2.217Z" stroke="#808080" stroke-width="1.33"/></svg>
